public/img/socialmedia/linkedin.svg

<svg xmlns="http://www.w3.org/2000/svg"
     width="105.82mm" height="105.82mm"
     viewBox="0 0 400 400">
  <path id="Seleção"
        fill="none" stroke="white" stroke-width="10"
        d="M 96.00,73.52
           C 91.11,74.83 87.98,76.02 84.00,79.33
             59.22,99.93 78.15,138.90 110.00,131.88
             129.19,127.65 138.20,103.41 128.01,87.00
             121.08,75.85 108.52,71.54 96.00,73.52 Z
           M 209.82,179.64
           C 210.09,156.00 210.00,163.67 210.00,156.00
             210.00,156.00 161.00,156.00 161.00,156.00
             161.00,156.00 161.00,314.00 161.00,314.00
             161.01,320.74 160.51,322.86 168.00,323.00
             168.00,323.00 212.00,323.00 212.00,323.00
             212.00,301.22 210.93,245.11 213.29,227.00
             215.56,209.62 224.54,197.76 243.00,197.04
             263.39,196.24 270.97,213.34 271.00,231.00
             271.00,231.00 271.00,289.00 271.00,289.00
             271.00,299.25 270.26,313.26 272.00,323.00
             272.00,323.00 314.00,323.00 314.00,323.00
             316.30,323.00 320.41,323.38 321.98,321.40
             323.23,319.81 323.00,315.99 323.00,314.00
             323.00,314.00 323.00,283.00 323.00,283.00
             323.00,283.00 323.00,223.00 323.00,223.00
             323.00,223.00 322.08,212.00 322.08,212.00
             320.64,194.00 316.86,176.91 302.71,164.43
             296.62,159.05 288.80,156.00 281.00,154.13
             260.83,149.29 238.06,151.77 222.09,165.92
             217.83,169.70 213.45,175.32 209.82,179.64 Z
           M 77.00,156.00
           C 77.00,156.00 77.00,323.00 77.00,323.00
             77.00,323.00 128.00,323.00 128.00,323.00
             128.00,323.00 128.00,156.00 128.00,156.00
             128.00,156.00 77.00,156.00 77.00,156.00 Z" />
</svg>

<svg xmlns="http://www.w3.org/2000/svg" viewBox="0 0 400 400">
  <path fill="none" stroke="#fff" stroke-width="10" d="M96 74c-5 1-8 2-12 5-25 21-6 60 26 53 19-4 28-29 18-45-7-11-19-15-32-13zm114 106v-24h-49v158c0 7 0 9 7 9h44c0-22-1-78 1-96 3-17 12-29 30-30 20-1 28 16 28 34v58c0 10-1 24 1 34h42c2 0 6 0 8-2l1-7v-31-60l-1-11c-1-18-5-35-19-48-6-5-14-8-22-10-20-5-43-2-59 12l-12 14zM77 156v167h51V156H77z"/>
</svg>
